X:1
T:Qui Sedes ad Dexteram
T:Qui Sedes ad Dexteram
T:Recorder score
T:Vivaldi
C:Vivaldi
%%score 1 { ( 2 5 ) | ( 3 4 ) }
L:1/8
Q:1/8=200
M:3/8
K:D
V:1 treble nm="Recorder" snm="Rec."
V:2 treble nm="Piano" snm="Pno."
V:5 treble 
V:3 bass 
V:4 bass 
V:1
 z3 | z3 | z3 | z3 | z3 | z3 | z3 | z3 | z3 | z3 | z3 | z3 | z3 | z3 | z3 | z3 | z3 | z3 | z3 | %19
 z3 | z3 | z3 | z3 | z3 | z3 | z3 | z2 B | F3- | F3- | F3- | F2 F | B/c/dc | BAG | FBc | dcB | z3 | %36
 z3 | F2 F | G3- | G3- | G/A/BA | G/A/BG | F3- | F3- | F/G/AG | F/G/AF | E3- | E3- | E/F/GF | %49
 E/F/GE | DCD | z3 | B2 B | BA^G | A^GF | ^E2 F- | F ^G2 | F3 | z3 | z3 | z3 | z3 | z3 | ^G3 | %64
 ^G3 | C2 B | A^GF | B2 ^G | A3 | z3 | A2 A | A3- | AG/F/E/^D/ | B3- | BA/G/F/E/ | =c3- | %76
 c/B/A/G/F/E/ | ^DEA | G TF2 | E3 | z3 | z3 | z3 | z3 | BGF | EFD | C/D/EF | E/F/GA | %88
 F/E/D/E/F/G/ | AB/c/d | D TE2 | D3 | z3 | z3 | z3 | z3 | F3 | F3- | F3- | F3 | F2 F | B/c/dc | %102
 BAG | FBc | dcB | z FB | G3- | GBA | ^GFE | A3- | AcB | ^A^GF | B2 F | z3 | z3 | E/F/GF | E/F/GF | %117
 E/F/GE | ^A2 B- | B/^G/ ^A2 | B3 | z3 | z3 | B F2 | G F2 | B D2 | E D2 | GFE | ^A2 B- | B ^A2 | %130
 B3 | z3 | z3 | z3 | z3 | z3 | z3 | z3 | z3 | z3 | z3 | z3 | z3 | z3 | z3 | z3 | z3 | z3 | z3 | %149
 z3 | z3 |] %151
V:2
 [Df][Fd][^A^c] | [DFB][DF][CE] | D/C/B,^A, | B,/C/DC | B,/C/DC | B,/C/DE | [^A,CF]3 | f b2 | %8
 g/a/[Bg]/f/[Ge]/d/ | c a2 | f/g/[Af]/e/[Fd]/c/ | B g2 | e/f/e/d/c/^B/ | [c^a]/B/[cf]^A | %14
 [fb]/e/[df]B | [Bg] [Bf]2 | [Bb][DB]F | [G=c] [FB]2 | [Bg] [Bf]2 | ^afb | d c2 | BAG | FED | GFE | %24
 DCB, | D/E/[B,CF][^A,CF] | [B,DF]2 z | z3 | D/E/FE | D/E/FE | D/E/FE | D2 [CF] | [DF][EA]E | %33
 [DF]2 [CF] | [DF]3 | D/E/FE | D/E/FE | D2 z | G/A/BA | G/A/BA | [EGc]2 z | [CEG]2 z | %42
 [DF]/[EG]/[FA][EG] | [DF]/[EG]/[FA][EG] | [DFB]2 z | [B,DF]2 z | [EG]/[FA]/[GB][FA] | %47
 [EG]/[FA]/[GB][EG] | [E^Ac] z2 | [^A,CE]2 z | [F,B,D]2 z | D/E/FE | D/E/FD | [B,^E^G]2 [B,CG] | %54
 [A,CF]2 [DF] | ^C2 C/B,/ | [A,CF] ^G2 | [Ac'][ca][^e^g] | fcB | A/^G/F^E | F/^G/AG | F/^G/AG | %62
 F/^G/AB | [^E^Gc]3 | [^G,C]/A,/B,A, | [^G,C]2 [B,^E] | [A,F]3 | [^G,C]/A,/B,G, | %68
 [FA]/[^GB]/[Ac][GB] | [FA]/[^GB]/[Ac][=GB] | [CFA]3 | [B,FA]3 | [^A,DF]3 | [B,E]/F/[EG][B,E] | %74
 [B,G]3 | A3 | [=CE]3 | [B,^D]EF | G [^DF]2 | [Gb][Bg][^df] | [GBe][GB][^DA] | G/F/E[B,^D] | %82
 E/F/GF | E/F/GF | [G,B,E]2 [A,^D] | [B,E]2 [B,E] | [CE]2 [A,E] | [A,E]2 [A,E] | [A,F]2 z | %89
 [B,DF]2 z | [FAd][EAd]c | [Fa][Af][ce] | [FAd][FA][CG] | F/E/D[A,C] | D/E/FE | D/E/FE | %96
 [A,DF]2 z | z3 | D/E/FE | D/E/FE | D/E/FE | D2 [CF] | [DF][EA]G | [DF]2 [CF] | [DF]3 | [DF]3 | %106
 [G,E]3 | [B,G]2 z | [B,E^G]2 z | A3- | A2 z | [^A,C]2 [A,F] | [B,DF]2 z | D/E/FE | D/E/FD | %115
 [G,B,]2 B, | E2 B, | E2 E | F>ED/C/ | B,/E/FE | D/E/FE | D/E/FE | D/E/FE | D [Bd]2 | [Ge] [Fd]2 | %125
 [df] [FB]2 | [EG=c] [DFB]2 | [GB]2 [B,G] | [^A,F]2 [B,-F] | [B,G] [^A,CF]2 | f/e/[fb]^d | %131
 g/a/g/f/e/d/ | c a2 | f/g/f/e/d/c/ | B g2 | e/f/e/d/c/B/ | ^a f2 | b f2 | [Bg] [Bf]2 | b B2 | %140
 [G=c] [FB]2 | [Bg] [Bf]2 | ^afb | d c2 | BAG | FED | GFE | DCB, | D/E/[B,CF][^A,CF] | [F,B,D]3 | %150
 z3 |] %151
V:3
 G,,2 F, | B,,2 [F,^A,] | [B,,B,]2 [^A,,F,] | B,,/C,/D,C, | B,,/C,/D,C, | B,,/C,/D,E, | F,3 | %7
 [B,^D]/[CE]/[DF][B,D] | B, z2 | [A,C]/[B,D]/[CE][A,C] | A, z2 | [G,D]/[A,C]/[B,D][G,B,] | %12
 [C,^A,]2 z | F,/^G,/^A,F, | D,/C,/B,,D, | E, D,2 | D,/C,/B,,D, | E, D,2 | E, D,2 | %19
 F,/G,/F,/E,/D,/C,/ | B,,/E,/F,F,, | B,A,G, | F,E,D, | G,F,E, | D,C,B,, | D,/E,/F,F,, | B,,2 z | %27
 z3 | B,/C/DC | B,/C/DC | B,/C/DC | [B,,B,]2 ^A,, | B,, C,2 | D,/C,/B,,^A,, | B,,3 | B,,/C,/D,C, | %36
 B,,/C,/D,C, | B,,2 z | E,/F,/G,F, | E,/F,/G,F, | A,,2 z | A,,2 z | D,2 z | z3 | G,,2 z | G,2 z | %46
 G,2 z | z3 | F,2 z | F,2 z | B,,2 z | B,,/C,/D,C, | B,,/C,/D,B,, | C,^D,^E, | F,/^G,/A,B, | %55
 C>B,A,/^G,/ | F,CC, | F,2 C | E,2 C | F,2 C, | F,/^G,/A,G, | F,/^G,/A,G, | F,/^G,/A,B, | C3 | %64
 ^E,/F,/^G,F, | ^E,^D,C, | F,3 | ^E,/F,/^G,E, | F,3 | z3 | F,/^G,/A,F, | ^D,/E,/F,D, | B,,3 | %73
 G,/A,/B,G, | E,3 | A,/B,/=CB, | A,3 | B,/A,/G,/F,/E,/^D,/ | E,/A,/B,B,, | E,2 B, | E,2 B, | %81
 E,2 B,, | E,/F,/G,F, | E,/F,/G,F, | E,2 F, | G,2 ^G, | A,2 D, | C,/D,/E,C, | D,2 z | D,2 z | %90
 D,A,A,, | D,2 A, | D,2 A, | D,2 A,, | D,/E,/F,E, | D,/E,/F,E, | D,2 z | z3 | B,/C/DC | B,/C/DC | %100
 B,/C/DC | B,,2 ^A,, | B,, C,2 | D,/C,/B,,^A,, | B,,3 | B,,/C,/D,B,, | E,/F,/G,F, | E,2 z | D,2 z | %109
 A,,/B,,/C,B,, | A,,2 z | F,2 E, | B,,/C,/D,C, | B,,/C,/D,C, | B,,/C,/D,B,, | E,2 z | z3 | z3 | %118
 z3 | z3 | B,,/C,/D,C, | B,,/C,/D,C, | B,,/C,/D,C, | B,,/C,/D,C, | E, B,,2 | B,,/C,/D,B,, | %126
 E, B,,2 | E,3 | F,>E,D, | E,F,F,, | B,,/C,/D,B,, | E,2 z | [A,E]/[B,D]/[CE][A,C] | D,2 z | %134
 [G,D]/[A,C]/[B,D][G,B,] | [C,^A,]2 z | F,/^G,/^A,F, | D,/C,/B,,D, | E, D,2 | D,/C,/B,,D, | %140
 E, D,2 | E, D,2 | F,/G,/F,/E,/D,/C,/ | B,,/E,/F,F,, | B,A,G, | F,E,D, | G,F,E, | D,C,B,, | %148
 D,/E,/F,F,, |!ff! !fermata!B,,3 | z3 |] %151
V:4
 x3 | x3 | x3 | x3 | x3 | x3 | x3 | x3 | E,2 z | x3 | D,2 z | x3 | x3 | x3 | x3 | x3 | x3 | x3 | %18
 x3 | x3 | x3 | x3 | x3 | x3 | x3 | x3 | x3 | x3 | x3 | x3 | x3 | x3 | x3 | x3 | x3 | x3 | x3 | %37
 x3 | x3 | x3 | x3 | x3 | x3 | x3 | x3 | x3 | x3 | x3 | x3 | x3 | x3 | x3 | x3 | x3 | x3 | x3 | %56
 x3 | x3 | x3 | x3 | x3 | x3 | x3 | x3 | x3 | x3 | x3 | x3 | x3 | x3 | x3 | x3 | x3 | x3 | x3 | %75
 x3 | x3 | x3 | x3 | x3 | x3 | x3 | x3 | x3 | x3 | x3 | x3 | x3 | x3 | x3 | x3 | x3 | x3 | x3 | %94
 x3 | x3 | x3 | x3 | x3 | x3 | x3 | B,2[I:staff -1] C | x3 | x3 | x3 | x3 | x3 | x3 | x3 | x3 | %110
 x3 | x3 | x3 | x3 | x3 | x3 | x3 | x3 | x3 | x3 | x3 | x3 | x3 | x3 | x3 | x3 | x3 | x3 | x3 | %129
 x3 | x3 | x3 | x3 |[I:staff +1] A,[I:staff -1]AF | x3 | x3 | x3 | x3 | x3 | x3 | x3 | x3 | x3 | %143
 x3 | x3 | x3 | x3 | x3 | x3 | x3 | x3 |] %151
V:5
 x3 | x3 | x3 | x3 | x3 | x3 | x3 | x3 | x3 | x3 | x3 | x3 | x3 | x3 | x3 | x3 | x3 | x3 | x3 | %19
 c2 f | F/G/^A,^A | x3 | x3 | x3 | x3 | x3 | x3 | x3 | x3 | x3 | x3 | x3 | x3 | x3 | x3 | x3 | x3 | %37
 x3 | x3 | x3 | x3 | x3 | x3 | x3 | x3 | x3 | x3 | x3 | x3 | x3 | x3 | x3 | x3 | x3 | x3 | E2 F | %56
 x [CF]^E | x3 | x3 | x3 | x3 | x3 | x3 | x3 | x3 | x3 | x3 | x3 | x3 | x3 | x3 | x3 | x3 | x3 | %74
 x3 | C/D/ED | x3 | x3 | x3 | x3 | x3 | x3 | x3 | x3 | x3 | x3 | x3 | x3 | x3 | x3 | x3 | x3 | x3 | %93
 x3 | x3 | x3 | x3 | x3 | x3 | x3 | x3 | x3 | x3 | x3 | x3 | x3 | x3 | x3 | x3 | C/D/ED | C2 z | %111
 x3 | x3 | x3 | x3 | x3 | x3 | x3 | x3 | x3 | x3 | x3 | x3 | x3 | x3 | x3 | x3 | x3 | x3 | x3 | %130
 x3 | BBG | x3 | x3 | x3 | x3 | c/B/c^A | f/e/dB | x3 | BDF | x3 | x3 | c2 f | %143
 F/G/[I:staff +1]^A,[I:staff -1]^A | x3 | x3 | x3 | x3 | x3 | x3 | x3 |] %151

